svg/color/boli.svg

<?xml version="1.0" encoding="UTF-8" ?>
<!DOCTYPE svg PUBLIC "-//W3C//DTD SVG 1.1//EN" "http://www.w3.org/Graphics/SVG/1.1/DTD/svg11.dtd">
<svg width="250pt" height="250pt" viewBox="0 0 250 250" version="1.1" xmlns="http://www.w3.org/2000/svg">
<g id="#ffffffff">
<path fill="#ffffff" opacity="1.00" d=" M 0.00 0.00 L 250.00 0.00 L 250.00 250.00 L 0.00 250.00 L 0.00 0.00 M 119.40 51.55 C 91.05 53.15 65.32 73.18 55.61 99.65 C 40.71 136.97 63.03 182.72 101.09 194.92 C 126.01 204.11 155.21 197.36 174.75 179.75 C 191.48 164.25 201.52 140.56 198.36 117.68 C 195.71 79.16 157.91 47.15 119.40 51.55 Z" />
</g>
<g id="#f1a432ff">
<path fill="#f1a432" opacity="1.00" d=" M 119.40 51.55 C 157.91 47.15 195.71 79.16 198.36 117.68 C 201.52 140.56 191.48 164.25 174.75 179.75 C 155.21 197.36 126.01 204.11 101.09 194.92 C 63.03 182.72 40.71 136.97 55.61 99.65 C 65.32 73.18 91.05 53.15 119.40 51.55 M 97.06 80.05 C 96.95 110.00 96.97 139.96 97.05 169.91 C 101.67 170.24 106.31 169.99 110.94 169.95 C 111.05 140.00 111.03 110.04 110.95 80.09 C 106.33 79.76 101.68 80.00 97.06 80.05 M 118.07 80.05 C 117.88 94.01 117.98 107.97 118.05 121.93 C 130.34 122.13 142.64 122.03 154.94 121.94 C 154.31 110.87 157.54 97.95 150.76 88.23 C 143.57 76.74 129.38 80.10 118.07 80.05 M 118.07 128.05 C 117.88 142.00 117.97 155.96 118.05 169.91 C 130.25 168.89 145.51 173.93 155.32 164.31 C 165.57 155.60 164.58 140.32 163.32 128.69 C 148.69 127.09 133.07 128.36 118.07 128.05 Z" />
</g>
<g id="#202930ff">
<path fill="#202930" opacity="1.00" d=" M 97.06 80.05 C 101.68 80.00 106.33 79.76 110.95 80.09 C 111.03 110.04 111.05 140.00 110.94 169.95 C 106.31 169.99 101.67 170.24 97.05 169.91 C 96.97 139.96 96.95 110.00 97.06 80.05 Z" />
<path fill="#202930" opacity="1.00" d=" M 118.07 80.05 C 129.38 80.10 143.57 76.74 150.76 88.23 C 157.54 97.95 154.31 110.87 154.94 121.94 C 142.64 122.03 130.34 122.13 118.05 121.93 C 117.98 107.97 117.88 94.01 118.07 80.05 Z" />
<path fill="#202930" opacity="1.00" d=" M 118.07 128.05 C 133.07 128.36 148.69 127.09 163.32 128.69 C 164.58 140.32 165.57 155.60 155.32 164.31 C 145.51 173.93 130.25 168.89 118.05 169.91 C 117.97 155.96 117.88 142.00 118.07 128.05 Z" />
</g>
</svg>

<?xml version="1.0" encoding="utf-8"?>
<!-- Generator: Adobe Illustrator 26.0.3, SVG Export Plug-In . SVG Version: 6.00 Build 0)  -->
<svg version="1.1" id="Layer_1" xmlns="http://www.w3.org/2000/svg" xmlns:xlink="http://www.w3.org/1999/xlink" x="0px" y="0px"
	 viewBox="0 0 250 250" style="enable-background:new 0 0 250 250;" xml:space="preserve">
<style type="text/css">
	.st0{fill:#F1A432;}
	.st1{fill:#202930;}
</style>
<g id="_x23_f1a432ff">
	<path class="st0" d="M119.4,51.5c38.5-4.4,76.3,27.6,79,66.1c3.2,22.9-6.9,46.6-23.6,62.1c-19.5,17.6-48.7,24.4-73.7,15.2
		C63,182.7,40.7,137,55.6,99.7C65.3,73.2,91.1,53.2,119.4,51.5 M97.1,80.1c-0.1,29.9-0.1,59.9,0,89.9c4.6,0.3,9.3,0.1,13.9,0
		c0.1-29.9,0.1-59.9,0-89.9C106.3,79.8,101.7,80,97.1,80.1 M118.1,80.1c-0.2,14-0.1,27.9,0,41.9c12.3,0.2,24.6,0.1,36.9,0
		c-0.6-11.1,2.6-24-4.2-33.7C143.6,76.7,129.4,80.1,118.1,80.1 M118.1,128.1c-0.2,13.9-0.1,27.9,0,41.9c12.2-1,27.5,4,37.3-5.6
		c10.2-8.7,9.3-24,8-35.6C148.7,127.1,133.1,128.4,118.1,128.1z"/>
</g>
<g id="_x23_202930ff">
	<path class="st1" d="M97.1,80.1c4.6-0.1,9.3-0.3,13.9,0c0.1,30,0.1,59.9,0,89.9c-4.6,0-9.3,0.3-13.9,0C97,140,96.9,110,97.1,80.1z"
		/>
	<path class="st1" d="M118.1,80.1c11.3,0,25.5-3.3,32.7,8.2c6.8,9.7,3.6,22.6,4.2,33.7c-12.3,0.1-24.6,0.2-36.9,0
		C118,108,117.9,94,118.1,80.1z"/>
	<path class="st1" d="M118.1,128.1c15,0.3,30.6-1,45.3,0.6c1.3,11.6,2.2,26.9-8,35.6c-9.8,9.6-25.1,4.6-37.3,5.6
		C118,156,117.9,142,118.1,128.1z"/>
</g>
</svg>
